Hatter-kde/actions/16/media-repeat-none.svg

<?xml version="1.0" encoding="UTF-8"?>
<svg viewBox="0 0 16 16" xmlns="http://www.w3.org/2000/svg">
 <defs id="defs3051">
  <style id="current-color-scheme" type="text/css">.ColorScheme-Text {
        color:#363636;
      }
      .ColorScheme-NegativeText {
        color:#da4453;
      }</style>
 </defs>
 <path class="ColorScheme-Text" d="m11 3.5v1.5h-6c-1.662 0-3 1.338-3 3h1c0-1.108 0.892-2 2-2h6v1.5l3-2-3-2zm-6 5-3 2 3 2v-1.5h2v-1h-2v-1.5z" fill="currentColor"/>
 <path class="ColorScheme-NegativeText" d="M 8.99,8 8,8.99 10.01,11 8,13.01 8.99,14 11,11.99 13.01,14 14,13.01 11.99,11 14,8.99 13.01,8 11,10.01 Z" fill="currentColor"/>
</svg>

<svg xmlns="http://www.w3.org/2000/svg" viewBox="0 0 16 16">
  <defs id="defs3051">
    <style type="text/css" id="current-color-scheme">
      .ColorScheme-Text {
        color:#363636;
      }
      .ColorScheme-NegativeText {
        color:#da4453;
      }
      </style>
  </defs>
 <path 
     style="fill:currentColor;fill-opacity:1;stroke:none" 
     d="M 11 3.5 L 11 5 L 5 5 C 3.338 5 2 6.338 2 8 L 3 8 C 3 6.892 3.892 6 5 6 L 11 6 L 11 7.5 L 14 5.5 L 11 3.5 z M 5 8.5 L 2 10.5 L 5 12.5 L 5 11 L 7 11 L 7 10 L 5 10 L 5 8.5 z "
     class="ColorScheme-Text"/>
  <path
      style="fill:currentColor;fill-opacity:1;stroke:none" 
     class="ColorScheme-NegativeText"
    d="M 8.99,8 8,8.99 10.01,11 8,13.01 8.99,14 11,11.99 13.01,14 14,13.01 11.99,11 14,8.99 13.01,8 11,10.01 Z" />
</svg>
